X:197
T:Bill Sullivan's Polka
O:ireland
S:Sessions, Kevin Burke record
R:Polka
M:2/4
L:1/8
K:A
a2 a>f|ec a>f|ec a>f|ec BA|\
a2 a>f|ec a2|ce B>c|BA A2:|*
|:ce ec|df fA|ce eA|cB BA/B/|\
ce eA|df f2|ce B>c |BA A2:|
